dist/svg/static/rss-feed-small.svg

<svg xmlns="http://www.w3.org/2000/svg" width="24" height="24" viewBox="0 0 24 24"><path d="M17.4 4H5.6C4.7 4 4 4.7 4 5.6v11.9c0 .8.7 1.5 1.6 1.5h11.9c.9 0 1.6-.7 1.6-1.6V5.6C19 4.7 18.3 4 17.4 4zM7 17c-.6 0-1-.5-1-1s.5-1 1-1 1 .5 1 1-.4 1-1 1zm5 0h-2s0-4-4-4v-2c6 0 6 6 6 6zm2 0c0-8-7.7-8-8-8V7c.1 0 10 0 10 10h-2z" fill="currentColor"/></svg>

<?xml version="1.0" encoding="UTF-8" standalone="no"?>
<svg width="24px" height="24px" viewBox="0 0 24 24" version="1.1" xmlns="http://www.w3.org/2000/svg" xmlns:xlink="http://www.w3.org/1999/xlink">
    <!-- Generator: sketchtool 46.2 (44496) - http://www.bohemiancoding.com/sketch -->
    <title>rss-feed-small</title>
    <desc>Created with sketchtool.</desc>
    <defs></defs>
    <g id="icons-published" stroke="none" stroke-width="1" fill="none" fill-rule="evenodd">
        <g id="briefing" transform="translate(-2372.000000, -1562.000000)"></g>
        <g id="rss-feed-small" fill-rule="nonzero" fill="#000000">
            <path d="M17.4,4 L5.6,4 C4.7,4 4,4.7 4,5.6 L4,17.5 C4,18.3 4.7,19 5.6,19 L17.5,19 C18.4,19 19.1,18.3 19.1,17.4 L19.1,5.6 C19,4.7 18.3,4 17.4,4 Z M7,17 C6.4,17 6,16.5 6,16 C6,15.5 6.5,15 7,15 C7.5,15 8,15.5 8,16 C8,16.5 7.6,17 7,17 Z M12,17 L10,17 C10,17 10,13 6,13 L6,11 C12,11 12,17 12,17 Z M14,17 C14,9 6.3,9 6,9 L6,7 C6.1,7 16,7 16,17 L14,17 Z" id="Shape"></path>
        </g>
    </g>
</svg>
